storage/app/icons/phosphoricons/thin/image-square-thin.svg

<svg xmlns="http://www.w3.org/2000/svg" fill="currentColor" viewBox="0 0 256 256"><path d="M208 36H48a12 12 0 0 0-12 12v160a12 12 0 0 0 12 12h160a12 12 0 0 0 12-12V48a12 12 0 0 0-12-12M44 208V48a4 4 0 0 1 4-4h160a4 4 0 0 1 4 4v87l-31.51-31.52a12 12 0 0 0-17 0L55 212h-7a4 4 0 0 1-4-4m164 4H66.34l102.83-102.83a4 4 0 0 1 5.66 0L212 146.34V208a4 4 0 0 1-4 4M96 116a20 20 0 1 0-20-20 20 20 0 0 0 20 20m0-32a12 12 0 1 1-12 12 12 12 0 0 1 12-12"/></svg>

<svg xmlns="http://www.w3.org/2000/svg" viewBox="0 0 256 256" fill="currentColor"><path d="M208,36H48A12,12,0,0,0,36,48V208a12,12,0,0,0,12,12H208a12,12,0,0,0,12-12V48A12,12,0,0,0,208,36ZM44,208V48a4,4,0,0,1,4-4H208a4,4,0,0,1,4,4v87l-31.51-31.52a12,12,0,0,0-17,0L55,212H48A4,4,0,0,1,44,208Zm164,4H66.34L169.17,109.17a4,4,0,0,1,5.66,0L212,146.34V208A4,4,0,0,1,208,212ZM96,116A20,20,0,1,0,76,96,20,20,0,0,0,96,116Zm0-32A12,12,0,1,1,84,96,12,12,0,0,1,96,84Z"/></svg>
